X:554
%%etbk:tnset id:290,pos:2,rep:2x,ant:
%%etbk:pldat 2016-08-18T18:54,2016-08-17T16:16,2016-08-16T16:18,2016-08-15T19:24,2016-08-10T16:34,2016-08-09T15:37,2016-06-04T15:35,2016-06-02T18:29,2016-06-01T16:45,2016-05-31T17:00,2016-05-30T18:08,2016-05-29T11:48,2016-05-15T14:55,2016-05-13T16:38,2016-05-11T16:38,2016-03-02T16:36,2016-03-01T17:12,2016-02-29T19:01,2016-02-27T13:56,2016-02-26T17:06,2016-02-22T18:32,2016-02-17T18:11,2016-02-10T16:57,2014-10-15T18:33,2014-04-24T18:16,2014-04-23T16:18,2014-04-22T19:35,2014-04-21T15:40,2014-04-16T08:48,2014-04-09T15:47,2014-04-06T11:33,2014-04-01T16:22,2014-03-06T18:53,2014-03-04T18:50,2014-03-02T15:22,2014-02-26T18:13,2014-02-23T09:50,2014-02-18T16:52,2014-01-30T18:41,2014-01-28T17:20,2014-01-27T18:14,2014-01-21T18:04,2014-01-19T14:49,2014-01-18T16:30,2014-01-17T17:24,2014-01-15T17:14,2014-01-13T19:04,2014-01-12T14:46,2014-01-08T17:12,2014-01-07T17:32,2014-01-03T15:48,2014-01-02T11:18,2013-12-29T12:57,2013-12-28T14:29,2013-12-27T16:33,2013-12-26T14:32,2013-12-22T17:14,2013-12-22T15:40,2013-12-21T17:09,2013-12-19T19:29
T: Clare's Reel
Z: Piano Box Version by Martin Fleischmann
H: Created 2013-12-29 /  Last Modified 2013-12-29
R: reel
M: 4/4
L: 1/8
K: Bmin
|:"bm"!1!F3!2!B !5!f2fd | "G"!1!G!2!B!3!d!5!f !4!e!3!d!2!B!3!d | "em"!4!e4 edBd | "f#m"!5!f3e !4!e!3!d!2!B!1!G |
"bm"!1!F3!2!B !5!f2f/e/d | "G"!1!G!2!B!3!d!5!f !4!e!3!d!2!B!3!d | "em"!4!e4 !3!ed Bd |1 "f#m"!5!a!4!gg!3!f !4!f2 !3!(3d!2!B!1!G :|2 "f#m"adfa df (3aaa  ||
 "bm"!5!b3!2!B !1!F!2!B!3!d!5!b | "G"z2!4!gf !1!G!2!B!3!d!5!f | "em"!4!e3d !1!B/c/!3!d !4!e!5!g | "f#m"!4!f3e ed !1!B!2!d|
"bm"!5!b3!1!B !3!f!1!B!2!d!5!b  | "G"z2!4!ggf !1!G!2!B!3!d!5!f | "em"!5!feed !1!B/c/d !4!ed |1 "1st ending" "f#m"FGcF Gc -c/B/A/G/ |2 "2nd ending" "f#m"FGcF Gc FG| "bm"F8 ||


